lib/brands/icons/dynamics-commerce.svg

<svg xmlns="http://www.w3.org/2000/svg" fill="none" aria-hidden="true" viewBox="0 0 48 48"><g id="dynamics-commerce-Icon"><g id="Group"><path id="Vector" fill="url(#paint0_linear_94_19197)" d="M38.099 23.0005H11.2801C10.4024 23.0005 9.69531 22.2935 9.69531 21.4157L12.0115 12.4192C12.0115 11.5415 12.7185 10.8345 13.5962 10.8345H40.4151C41.2928 10.8345 41.9999 11.5415 41.9999 12.4192L39.6837 21.4157C39.6837 22.2935 38.9767 23.0005 38.099 23.0005Z"/><path id="Vector_2" fill="#E76D25" d="M33.4912 39.75H14.3279C13.4502 39.75 12.7432 39.043 12.7432 38.1653L15.0593 29.1687C15.0593 28.291 15.7664 27.584 16.6441 27.584H35.8074C36.6851 27.584 37.3922 28.291 37.3922 29.1687L35.076 38.1653C35.076 39.043 34.3446 39.75 33.4912 39.75Z"/><g id="Vector_3" filter="url(#filter0_d_94_19197)"><path fill="#F89622" d="M23.7632 39.75H13.3282C12.3529 39.75 11.5484 39.0673 11.3533 38.1165L6.03831 10.6393C5.7945 9.3959 6.74535 8.25 8.01315 8.25H15.9857C16.9609 8.25 17.7655 8.93266 17.9605 9.88351L23.7632 39.75Z"/></g></g></g><defs><filter id="filter0_d_94_19197" width="21.7632" height="35.5" x="6" y="8.25" color-interpolation-filters="sRGB" filterUnits="userSpaceOnUse"><feFlood flood-opacity="0" result="BackgroundImageFix"/><feColorMatrix in="SourceAlpha" result="hardAlpha" values="0 0 0 0 0 0 0 0 0 0 0 0 0 0 0 0 0 0 127 0"/><feOffset dx="2" dy="2"/><feGaussianBlur stdDeviation="1"/><feComposite in2="hardAlpha" operator="out"/><feColorMatrix values="0 0 0 0 0 0 0 0 0 0 0 0 0 0 0 0 0 0 0.4 0"/><feBlend in2="BackgroundImageFix" result="effect1_dropShadow_94_19197"/><feBlend in="SourceGraphic" in2="effect1_dropShadow_94_19197" result="shape"/></filter><linearGradient id="paint0_linear_94_19197" x1="9.69912" x2="42.0058" y1="16.9119" y2="16.9119" gradientUnits="userSpaceOnUse"><stop offset="0.3911" stop-color="#FFF349"/><stop offset="0.4904" stop-color="#FFF354"/><stop offset="0.6517" stop-color="#FFF26F"/><stop offset="0.8535" stop-color="#FFF28F"/><stop offset="0.9777" stop-color="#FDF2A4"/></linearGradient></defs></svg>

<svg xmlns="http://www.w3.org/2000/svg" fill="none" aria-hidden="true" viewBox="0 0 48 48"><path fill="url(#a)" d="M38.099 23H11.28a1.582 1.582 0 0 1-1.585-1.584l2.316-8.997c0-.878.708-1.585 1.585-1.585h26.82c.877 0 1.584.707 1.584 1.585l-2.316 8.997A1.58 1.58 0 0 1 38.099 23Z"/><path fill="#E76D25" d="M33.491 39.75H14.328a1.582 1.582 0 0 1-1.585-1.585l2.316-8.996c0-.878.707-1.585 1.585-1.585h19.163c.878 0 1.585.707 1.585 1.585l-2.316 8.996c0 .878-.731 1.585-1.585 1.585Z"/><g filter="url(#b)"><path fill="#F89622" d="M23.763 39.75H13.328c-.975 0-1.78-.683-1.975-1.633L6.038 10.639A2.003 2.003 0 0 1 8.013 8.25h7.973c.975 0 1.78.683 1.974 1.634l5.803 29.866Z"/></g><defs><linearGradient id="a" x1="9.699" x2="42.006" y1="16.912" y2="16.912" gradientUnits="userSpaceOnUse"><stop offset=".391" stop-color="#FFF349"/><stop offset=".49" stop-color="#FFF354"/><stop offset=".652" stop-color="#FFF26F"/><stop offset=".854" stop-color="#FFF28F"/><stop offset=".978" stop-color="#FDF2A4"/></linearGradient><filter id="b" width="21.763" height="35.5" x="6" y="8.25" color-interpolation-filters="sRGB" filterUnits="userSpaceOnUse"><feFlood flood-opacity="0" result="BackgroundImageFix"/><feColorMatrix in="SourceAlpha" result="hardAlpha" values="0 0 0 0 0 0 0 0 0 0 0 0 0 0 0 0 0 0 127 0"/><feOffset dx="2" dy="2"/><feGaussianBlur stdDeviation="1"/><feComposite in2="hardAlpha" operator="out"/><feColorMatrix values="0 0 0 0 0 0 0 0 0 0 0 0 0 0 0 0 0 0 0.4 0"/><feBlend in2="BackgroundImageFix" result="effect1_dropShadow_94_19197"/><feBlend in="SourceGraphic" in2="effect1_dropShadow_94_19197" result="shape"/></filter></defs></svg>
